X:2344
T:Cow Calling Song
C:Mrs Bridson, Glen Maye
C:Traditional
O:Isle of Man
Z:Collected by Mona Douglas
B:Kiaull Vannin #344 
M:4/4 
L:1/4
K:D 
f3/2e/ dB|AF E3/2F/|G2 d3/2B/|A3/2F/ ED|e4 |
f3/2e/ dB|AF E3/2F/|B3/2c/ dB|AF EB,|D4 |
f3/2e/ d/B/ A/F/|f3/2e/ d/B/ A/F/|d3/2B A/F/ E/D/| !fermata!e4 |
f3/2e/ d/B/ A/F/|d3/2B/ A/F/ E/F/|E//F// G3/2-G2|EG d3/2B| AG e3/2B/|d4 |
e3/2B/ f3/2B/|e3/2B/ f3/2B/|!fermata!e4 |d3/2B/ e3/2B/|d3/2B/ e3/2B/|!fermata!d4 ||

